offer/images/logo.svg

<svg height="32" viewBox="0 0 228 32" width="228" xmlns="http://www.w3.org/2000/svg"><g fill="#f2f2f2" fill-rule="evenodd"><path d="m26.41 7.26-1.26.74-1.26.72-10.06 5.8-3.77-2.18 10.06-5.8 2.51-1.46-2.51-1.45-2.51 1.45-10.07 5.81-3.77-2.18 10.06-5.8 2.52-1.46-2.52-1.45-2.51 1.45-11.32 6.55v16l13.83 8 13.84-8v-16zm-23.89 3.63 10.06 5.81v11.62l-10.06-5.81zm22.63 11.62-10.06 5.81v-11.62l10.06-5.8z" fill-rule="nonzero"/><path d="m40.32 10.81v2.86h5.24v3.74h-5.24v2.86h6.2v3.73h-10.52v-17h10.52v3.77z"/><path d="m49.58 15.54c-.0195666-4.0398325 2.7382633-7.56414079 6.6642888-8.51648173 3.9260256-.95234094 7.9921219.91667896 9.8257112 4.51648173l-3.74 1.9c-.9711183-1.8276282-3.0574048-2.7647045-5.0686433-2.2766314-2.0112384.4880731-3.4359554 2.2771749-3.4613567 4.3466314.0254013 2.0694565 1.4501183 3.8585583 3.4613567 4.3466314 2.0112385.4880731 4.097525-.4490032 5.0686433-2.2766314l3.74 1.9c-1.8335893 3.5998028-5.8996856 5.4688227-9.8257112 4.5164817-3.9260255-.9523409-6.6838554-4.4766492-6.6642888-8.5164817z"/><path d="m68.85 15.54c0-4.8214459 3.9085541-8.73 8.73-8.73s8.73 3.9085541 8.73 8.73-3.9085541 8.73-8.73 8.73c-2.3169687.0053264-4.5405745-.9127283-6.1789231-2.5510769s-2.5564033-3.8619544-2.5510769-6.1789231zm13.2 0c0-2.4852814-2.0147186-4.5-4.5-4.5s-4.5 2.0147186-4.5 4.5 2.0147186 4.5 4.5 4.5 4.5-2.0147186 4.5-4.5z" fill-rule="nonzero"/><path d="m109.37 7v17h-4.37v-9l-4.19 9h-2.32l-4.23-9.15v9.15h-4.33v-17h4.7l5 10.82 5-10.82z"/><path d="m126.39 12.28c.028848 1.3805527-.514523 2.7115712-1.501295 3.67751-.986773.9659387-2.329082 1.4807872-3.708705 1.42249h-3.18v6.62h-4.33v-17h7.56c1.387853.00509972 2.715613.56691102 3.685636 1.55949236.970022.99258134 1.501166 2.33290414 1.474364 3.72050764zm-4.16 0c-.019301-.438122-.219827-.848513-.553599-1.1329774-.333771-.2844644-.770758-.4174086-1.206401-.3670226h-2.47v3.06h2.52c.430484.0272825.853913-.1193172 1.175371-.4069379.321459-.2876206.514059-.6922048.534629-1.1230621z" fill-rule="nonzero"/><path d="m143.23 24h-4.88l-4-6.23h-1v6.23h-4.33v-17.00001421l7.56.00001421c1.409898-.00329072 2.760936.56497169 3.744609 1.57502664.983673 1.01005494 1.515987 2.37565606 1.475391 3.78497336.06051 2.1768414-1.275847 4.1491754-3.32 4.9zm-5.56-11.47c.016967-.471778-.163007-.9293667-.49682-1.2631798s-.791402-.5137869-1.26318-.4968202h-2.52v3.51h2.52c.463711.0192609.914935-.1530269 1.247805-.4764402.33287-.3234134.518087-.7694867.512195-1.2335598z" fill-rule="nonzero"/><path d="m150.14 10.81v2.86h5.24v3.74h-5.24v2.86h6.2v3.73h-10.54v-17h10.54v3.77z"/><path d="m176.55 7v17h-4.55l-7.65-10.43v10.43h-4.35v-17h4.53l7.68 10.4v-10.4z"/><path d="m185.27 10.81v2.86h5.24v3.74h-5.24v2.86h6.21v3.73h-10.54v-17h10.54v3.77z"/><path d="m195.05 18.63v-11.63h4.33v10.81c.26299 1.422385 1.503507 2.4545644 2.95 2.4545644s2.68701-1.0321794 2.95-2.4545644v-10.81h4.33v11.63c0 3.17-3.2 5.64-7.28 5.64s-7.28-2.47-7.28-5.64z"/><path d="m227.94 24h-4.87l-4-6.23h-1v6.23h-4.34v-17.00001496l7.57.00001496c1.409035-.00337697 2.75912.56519661 3.741222 1.57557481.982103 1.01037819 1.512137 2.37605389 1.468778 3.78442519.062004 2.1742602-1.269794 4.1458043-3.31 4.9zm-5.55-11.47c.016967-.471778-.163007-.9293667-.49682-1.2631798s-.791402-.5137869-1.26318-.4968202h-2.52v3.51h2.52c.463711.0192609.914935-.1530269 1.247805-.4764402.33287-.3234134.518087-.7694867.512195-1.2335598z" fill-rule="nonzero"/></g></svg>

<?xml version="1.0" encoding="UTF-8"?>
<svg width="228px" height="32px" viewBox="0 0 228 32" version="1.1" xmlns="http://www.w3.org/2000/svg" xmlns:xlink="http://www.w3.org/1999/xlink">
    <!-- Generator: Sketch 52.2 (67145) - http://www.bohemiancoding.com/sketch -->
    <title>SVGLight</title>
    <desc>Created with Sketch.</desc>
    <g id="Page-1" stroke="none" stroke-width="1" fill="none" fill-rule="evenodd">
        <g id="offer" transform="translate(-606.000000, -97.000000)" fill="#F2F2F2">
            <g id="SVGLight" transform="translate(606.000000, 97.000000)">
                <path d="M26.41,7.26 L25.15,8 L23.89,8.72 L13.83,14.52 L10.06,12.34 L20.12,6.54 L22.63,5.08 L20.12,3.63 L17.61,5.08 L7.54,10.89 L3.77,8.71 L13.83,2.91 L16.35,1.45 L13.83,0 L11.32,1.45 L0,8 L0,24 L13.83,32 L27.67,24 L27.67,8 L26.41,7.26 Z M2.52,10.89 L12.58,16.7 L12.58,28.32 L2.52,22.51 L2.52,10.89 Z M25.15,22.51 L15.09,28.32 L15.09,16.7 L25.15,10.9 L25.15,22.51 Z" id="Shape" fill-rule="nonzero"></path>
                <polygon id="Path" points="40.32 10.81 40.32 13.67 45.56 13.67 45.56 17.41 40.32 17.41 40.32 20.27 46.52 20.27 46.52 24 36 24 36 7 46.52 7 46.52 10.77"></polygon>
                <path d="M49.58,15.54 C49.5604334,11.5001675 52.3182633,7.97585921 56.2442888,7.02351827 C60.1703144,6.07117733 64.2364107,7.94019723 66.07,11.54 L62.33,13.44 C61.3588817,11.6123718 59.2725952,10.6752955 57.2613567,11.1633686 C55.2501183,11.6514417 53.8254013,13.4405435 53.8,15.51 C53.8254013,17.5794565 55.2501183,19.3685583 57.2613567,19.8566314 C59.2725952,20.3447045 61.3588817,19.4076282 62.33,17.58 L66.07,19.48 C64.2364107,23.0798028 60.1703144,24.9488227 56.2442888,23.9964817 C52.3182633,23.0441408 49.5604334,19.5198325 49.58,15.48 L49.58,15.54 Z" id="Path"></path>
                <path d="M68.85,15.54 C68.85,10.7185541 72.7585541,6.81 77.58,6.81 C82.4014459,6.81 86.31,10.7185541 86.31,15.54 C86.31,20.3614459 82.4014459,24.27 77.58,24.27 C75.2630313,24.2753264 73.0394255,23.3572717 71.4010769,21.7189231 C69.7627283,20.0805745 68.8446736,17.8569687 68.85,15.54 Z M82.05,15.54 C82.05,13.0547186 80.0352814,11.04 77.55,11.04 C75.0647186,11.04 73.05,13.0547186 73.05,15.54 C73.05,18.0252814 75.0647186,20.04 77.55,20.04 C80.0352814,20.04 82.05,18.0252814 82.05,15.54 Z" id="Shape" fill-rule="nonzero"></path>
                <polygon id="Path" points="109.37 7 109.37 24 105 24 105 15 100.81 24 98.49 24 94.26 14.85 94.26 24 89.93 24 89.93 7 94.63 7 99.63 17.82 104.63 7"></polygon>
                <path d="M126.39,12.28 C126.418848,13.6605527 125.875477,14.9915712 124.888705,15.95751 C123.901932,16.9234487 122.559623,17.4382972 121.18,17.38 L118,17.38 L118,24 L113.67,24 L113.67,7 L121.23,7 C122.617853,7.00509972 123.945613,7.56691102 124.915636,8.55949236 C125.885658,9.5520737 126.416802,10.8923965 126.39,12.28 Z M122.23,12.28 C122.210699,11.841878 122.010173,11.431487 121.676401,11.1470226 C121.34263,10.8625582 120.905643,10.729614 120.47,10.78 L118,10.78 L118,13.84 L120.52,13.84 C120.950484,13.8672825 121.373913,13.7206828 121.695371,13.4330621 C122.01683,13.1454415 122.20943,12.7408573 122.23,12.31 L122.23,12.28 Z" id="Shape" fill-rule="nonzero"></path>
                <path d="M143.23,24 L138.35,24 L134.35,17.77 L133.35,17.77 L133.35,24 L129.02,24 L129.02,6.99998579 L136.58,7 C137.989898,6.99670928 139.340936,7.56497169 140.324609,8.57502664 C141.308282,9.58508158 141.840596,10.9506827 141.8,12.36 C141.86051,14.5368414 140.524153,16.5091754 138.48,17.26 L143.23,24 Z M137.67,12.53 C137.686967,12.058222 137.506993,11.6006333 137.17318,11.2668202 C136.839367,10.9330071 136.381778,10.7530333 135.91,10.77 L133.39,10.77 L133.39,14.28 L135.91,14.28 C136.373711,14.2992609 136.824935,14.1269731 137.157805,13.8035598 C137.490675,13.4801464 137.675892,13.0340731 137.67,12.57 L137.67,12.53 Z" id="Shape" fill-rule="nonzero"></path>
                <polygon id="Path" points="150.14 10.81 150.14 13.67 155.38 13.67 155.38 17.41 150.14 17.41 150.14 20.27 156.34 20.27 156.34 24 145.8 24 145.8 7 156.34 7 156.34 10.77"></polygon>
                <polygon id="Path" points="176.55 7 176.55 24 172 24 164.35 13.57 164.35 24 160 24 160 7 164.53 7 172.21 17.4 172.21 7"></polygon>
                <polygon id="Path" points="185.27 10.81 185.27 13.67 190.51 13.67 190.51 17.41 185.27 17.41 185.27 20.27 191.48 20.27 191.48 24 180.94 24 180.94 7 191.48 7 191.48 10.77"></polygon>
                <path d="M195.05,18.63 L195.05,7 L199.38,7 L199.38,17.81 C199.64299,19.232385 200.883507,20.2645644 202.33,20.2645644 C203.776493,20.2645644 205.01701,19.232385 205.28,17.81 L205.28,7 L209.61,7 L209.61,18.63 C209.61,21.8 206.41,24.27 202.33,24.27 C198.25,24.27 195.05,21.8 195.05,18.63 Z" id="Path"></path>
                <path d="M227.94,24 L223.07,24 L219.07,17.77 L218.07,17.77 L218.07,24 L213.73,24 L213.73,6.99998504 L221.3,7 C222.709035,6.99662303 224.05912,7.56519661 225.041222,8.57557481 C226.023325,9.585953 226.553359,10.9516287 226.51,12.36 C226.572004,14.5342602 225.240206,16.5058043 223.2,17.26 L227.94,24 Z M222.39,12.53 C222.406967,12.058222 222.226993,11.6006333 221.89318,11.2668202 C221.559367,10.9330071 221.101778,10.7530333 220.63,10.77 L218.11,10.77 L218.11,14.28 L220.63,14.28 C221.093711,14.2992609 221.544935,14.1269731 221.877805,13.8035598 C222.210675,13.4801464 222.395892,13.0340731 222.39,12.57 L222.39,12.53 Z" id="Shape" fill-rule="nonzero"></path>
            </g>
        </g>
    </g>
</svg>
